Assets/m.svg

<?xml version="1.0" encoding="UTF-8" standalone="no"?>
<!-- Generator: -->

<svg
   xmlns:dc="http://purl.org/dc/elements/1.1/"
   xmlns:cc="http://creativecommons.org/ns#"
   xmlns:rdf="http://www.w3.org/1999/02/22-rdf-syntax-ns#"
   xmlns:svg="http://www.w3.org/2000/svg"
   xmlns="http://www.w3.org/2000/svg"
   xmlns:sodipodi="http://sodipodi.sourceforge.net/DTD/sodipodi-0.dtd"
   xmlns:inkscape="http://www.inkscape.org/namespaces/inkscape"
   width="512pt"
   height="512pt"
   viewBox="0 0 512 512"
   id="svg2"
   version="1.1"
   inkscape:version="0.91 r13725"
   sodipodi:docname="m.svg"
   inkscape:export-filename="F:\GameDevelopment\Duality\TilemapJam\Source\Media\Sprites\Saw\saw_spiral.png"
   inkscape:export-xdpi="72"
   inkscape:export-ydpi="72">
  <metadata
     id="metadata13">
    <rdf:RDF>
      <cc:Work
         rdf:about="">
        <dc:format>image/svg+xml</dc:format>
        <dc:type
           rdf:resource="http://purl.org/dc/dcmitype/StillImage" />
      </cc:Work>
    </rdf:RDF>
  </metadata>
  <defs
     id="defs11" />
  <sodipodi:namedview
     pagecolor="#ffffff"
     bordercolor="#666666"
     borderopacity="1"
     objecttolerance="10"
     gridtolerance="10"
     guidetolerance="10"
     inkscape:pageopacity="0"
     inkscape:pageshadow="2"
     inkscape:window-width="1920"
     inkscape:window-height="1017"
     id="namedview9"
     showgrid="false"
     inkscape:snap-object-midpoints="true"
     inkscape:zoom="1.0429825"
     inkscape:cx="202.43324"
     inkscape:cy="302.39238"
     inkscape:window-x="-8"
     inkscape:window-y="-8"
     inkscape:window-maximized="1"
     inkscape:current-layer="layer2" />
  <g
     inkscape:groupmode="layer"
     id="layer1"
     inkscape:label="Layer 1"
     style="display:none">
    <path
       id="path5-2"
       d="m 255,46.500003 137.5,-0.150002 0,9.150002 -75.14999,0 3.64999,1 24.60001,9.849998 22.64999,12.5 9.75,7.25 111,80.399999 0.25,0.35001 -5.39999,7.39999 -60,-43.39999 15.5,24.14999 10.64999,22.5 4.25,13 42.35001,129.85001 q -0.25,1.75 -8.60001,3.64999 l -22.89999,-70 -1.60001,27.5 -4.75,25 -4.14999,13.25 -35.60001,110 -6.39999,19.60001 -0.35001,1 -0.39999,0 -8.5,-2.85001 22.75,-70.14999 -18,21.89999 -18.5,17.35001 -10.75,7.89999 -111,80.75 -5.5,-7.14999 0.14999,-0.5 59.85001,-43.5 -27.5,7.25 L 270.25,464.5 256,464.60001 118.5,464.75 l 0,-9.14999 75.10001,0 -2.5,-0.60001 -25.75,-10.25 L 144,433 133,425 21.999998,344.60001 l -0.25,-0.35001 5.5,-7.25 59.849998,43.25 -15.099998,-23.39999 -11,-23.25 -4.25,-13 -42.5,-130.25 0.1,-0.5 8.5,-2.60001 22.999998,69.85001 1.650002,-27.35001 4.599998,-24.64999 4.25,-13.75 42.25,-130.350007 0.400002,-0.25 8.600002,2.75 L 84.849996,133.75 102.6,112.1 l 18.25,-17.099997 11.25001,-8.400002 111,-80.7499979 0.5,0.25 5,7.2499999 -60,43.65 27.39999,-7.25 25.5,-3.25 13.5,0 m -3.5,25 -9.5,0.25 -21.39999,2.75 L 198,80.350001 177,88.750003 174.35001,90.100001 156.5,100 l -6,4.5 -6.39999,4.6 -7.5,5.65 -16.00001,15.10001 -14.75,18 L 93.849996,166.75 83.999998,188 l -2.25,7 -2.400002,7.5 -2.5,7.35001 -4.349998,22.75 -1.400002,23 1.400002,23.14999 4.349998,22.75 2.5,7.10001 2.400002,7.5 q 18,52.75 62.350012,85.89999 l 6.39999,4.60001 6.25,4.75 20.10001,11 L 198.75,431 l 23.60001,5.85001 21.89999,2.75 7.25,0 8,0 7.5,0 23.25,-3 22,-5.60001 21.85001,-8.64999 L 353.75,411.5 360.35001,406.60001 366.75,402 q 44.5,-33.14999 62.5,-85.89999 l 2.35001,-7.5 L 434.25,300.5 438.35001,278.60001 439.75,253.75 438.25,231.60001 434,209.5 431.60001,202.5 429.25,195 q -18,-52.89999 -62.5,-85.9 l -6.39999,-4.6 -6.10001,-4.749997 -20,-10.900002 -22,-8.75 -23.64999,-5.849998 -21.85001,-2.75 -7.25,0 -8,0"
       style="visibility:visible;opacity:1;fill:#000000;fill-rule:evenodd;stroke-width:0"
       inkscape:connector-curvature="0" />
  </g>
  <g
     inkscape:groupmode="layer"
     id="layer2"
     inkscape:label="Layer 2"
     style="display:inline">
    <path
       d="m 255.425,255.55 c -1.27217,2.47052 -3.95785,-0.49599 -4.10616,-2.11443 -0.40191,-4.38587 4.63221,-6.72345 8.33503,-6.0979 6.62348,1.11898 9.73237,8.53636 8.08963,14.55564 -2.41078,8.83354 -12.48525,12.80774 -20.77624,10.08136 -11.05058,-3.63384 -15.91006,-16.44896 -12.07309,-26.99684 4.82845,-13.27344 20.41946,-19.02606 33.21745,-14.06482 15.50007,6.00872 22.14991,24.39373 16.05654,39.43804 -7.18082,17.7292 -28.37035,25.27869 -45.65864,18.04828 -19.96002,-8.3478 -28.41076,-32.34854 -20.04001,-51.87925 9.51139,-22.19203 36.32783,-31.54513 58.09985,-22.03173 24.42491,10.67259 34.68118,40.30792 24.02347,64.32044 -11.83209,26.65846 -44.28863,37.81848 -70.54105,26.0152 -28.8925,-12.99028 -40.95675,-48.2698 -28.00693,-76.76165 14.14749,-31.12693 52.25134,-44.09576 82.98225,-29.99866 33.36169,15.30392 47.23539,56.23319 31.99039,89.20286 -16.45973,35.59669 -60.21528,50.3755 -95.42345,33.98211 -37.83192,-17.61503 -53.51603,-64.19756 -35.97385,-101.64405 18.76992,-40.0673 68.18002,-56.65688 107.86465,-37.96558 42.30284,19.92447 59.79802,72.16263 39.95731,114.08526 -21.07872,44.5385 -76.14535,62.93939 -120.30586,41.94904 -46.77427,-22.23273 -66.08098,-80.12818 -43.94077,-126.52646 23.38653,-49.01014 84.11109,-69.22274 132.74706,-45.9325 51.24608,24.54014 72.36466,88.09408 47.92423,138.96766 -25.6936,53.48208 -92.07715,75.50671 -145.18826,49.91596 -55.71815,-26.84692 -78.64888,-96.06028 -51.90769,-151.40886 28.00011,-57.95428 100.04346,-81.79116 157.62947,-53.89942 60.19045,29.1532 84.93353,104.02668 55.89115,163.85006 -30.3062,62.42667 -108.00996,88.07598 -170.07067,57.88288 -64.66292,-31.4591 -91.21851,-111.99327 -59.87461,-176.29127 32.61193,-66.8992 115.97661,-94.361102 182.51187,-61.86634 69.13552,33.7647 97.50376,119.95999 63.85807,188.73247 -34.9174,71.37187 -123.94339,100.64647 -194.95307,65.8498 C 114.15482,350.87726 83.973835,259.02048 119.92154,185.77363 157.14417,109.92899 251.83181,78.841594 327.31581,115.94037 405.39686,154.31555 437.3907,251.83413 399.1408,329.55524 359.61312,409.87274 259.26355,442.77302 179.30533,403.37197 96.751382,362.69182 62.944633,259.5112 103.49687,177.31589 145.32945,92.525476 251.34117,57.812244 335.77355,99.515709 422.80045,142.50068 458.42018,251.34355 415.56546,338.01299 371.42813,427.27639 259.75406,463.80263 170.84758,419.79663 105.60709,387.50457 64.748882,317.92578 67.580468,245.28548"
       sodipodi:t0="0"
       sodipodi:argument="-16.80323"
       sodipodi:radius="188.12477"
       sodipodi:revolution="10.183005"
       sodipodi:expansion="1"
       sodipodi:cy="255.55"
       sodipodi:cx="255.425"
       id="path3341-0-9"
       style="display:inline;visibility:visible;fill:none;fill-opacity:1;fill-rule:evenodd;stroke:#ffffff;stroke-width:8;stroke-linecap:round;stroke-linejoin:miter;stroke-miterlimit:4;stroke-dasharray:none;stroke-opacity:1"
       sodipodi:type="spiral" />
  </g>
</svg>

<?xml version="1.0" encoding="UTF-8" standalone="no"?>
<!-- Generator: -->

<svg
   xmlns:dc="http://purl.org/dc/elements/1.1/"
   xmlns:cc="http://creativecommons.org/ns#"
   xmlns:rdf="http://www.w3.org/1999/02/22-rdf-syntax-ns#"
   xmlns:svg="http://www.w3.org/2000/svg"
   xmlns="http://www.w3.org/2000/svg"
   xmlns:sodipodi="http://sodipodi.sourceforge.net/DTD/sodipodi-0.dtd"
   xmlns:inkscape="http://www.inkscape.org/namespaces/inkscape"
   width="512pt"
   height="512pt"
   viewBox="0 0 512 512"
   id="svg2"
   version="1.1"
   inkscape:version="0.91 r13725"
   sodipodi:docname="m.svg"
   inkscape:export-filename="F:\Documents\maya\projects\default\images\m.png"
   inkscape:export-xdpi="72"
   inkscape:export-ydpi="72">
  <metadata
     id="metadata13">
    <rdf:RDF>
      <cc:Work
         rdf:about="">
        <dc:format>image/svg+xml</dc:format>
        <dc:type
           rdf:resource="http://purl.org/dc/dcmitype/StillImage" />
      </cc:Work>
    </rdf:RDF>
  </metadata>
  <defs
     id="defs11" />
  <sodipodi:namedview
     pagecolor="#ffffff"
     bordercolor="#666666"
     borderopacity="1"
     objecttolerance="10"
     gridtolerance="10"
     guidetolerance="10"
     inkscape:pageopacity="0"
     inkscape:pageshadow="2"
     inkscape:window-width="1920"
     inkscape:window-height="1017"
     id="namedview9"
     showgrid="false"
     inkscape:snap-object-midpoints="true"
     inkscape:zoom="1.0429825"
     inkscape:cx="345.45393"
     inkscape:cy="302.6033"
     inkscape:window-x="-8"
     inkscape:window-y="-8"
     inkscape:window-maximized="1"
     inkscape:current-layer="FRAME_0" />
  <g
     id="FRAME_0"
     style="visibility:visible"
     fill-rule="evenodd">
    <path
       style="fill:rgb(0,0,0);opacity:1;stroke-width:0"
       d="M255.000000,46.500000 L392.500000,46.349998 L392.500000,55.500000 L317.350006,55.500000 L321.000000,56.500000 L345.600006,66.349998 L368.250000,78.849998 L378.000000,86.099998 L489.000000,166.500000 L489.250000,166.850006 L483.850006,174.250000 L423.850006,130.850006 L439.350006,155.000000 L450.000000,177.500000 L454.250000,190.500000 L496.600006,320.350006 Q496.350006,322.100006 488.000000,324.000000 L465.100006,254.000000 L463.500000,281.500000 L458.750000,306.500000 L454.600006,319.750000 L419.000000,429.750000 L412.600006,449.350006 L412.250000,450.350006 L411.850006,450.350006 L403.350006,447.500000 L426.100006,377.350006 L408.100006,399.250000 L389.600006,416.600006 L378.850006,424.500000 L267.850006,505.250000 L262.350006,498.100006 L262.500000,497.600006 L322.350006,454.100006 L294.850006,461.350006 L270.250000,464.500000 L256.000000,464.600006 L118.500000,464.750000 L118.500000,455.600006 L193.600006,455.600006 L191.100006,455.000000 L165.350006,444.750000 L144.000000,433.000000 L133.000000,425.000000 L22.000000,344.600006 L21.750000,344.250000 L27.250000,337.000000 L87.099998,380.250000 L72.000000,356.850006 L61.000000,333.600006 L56.750000,320.600006 L14.250000,190.350006 L14.350000,189.850006 L22.850000,187.250000 L45.849998,257.100006 L47.500000,229.750000 L52.099998,205.100006 L56.349998,191.350006 L98.599998,61.000000 L99.000000,60.750000 L107.599998,63.500000 L84.849998,133.750000 L102.599998,112.099998 L120.849998,95.000000 L132.100006,86.599998 L243.100006,5.850000 L243.600006,6.100000 L248.600006,13.350000 L188.600006,57.000000 L216.000000,49.750000 L241.500000,46.500000 L255.000000,46.500000 M251.500000,71.500000 L242.000000,71.750000 L220.600006,74.500000 L198.000000,80.349998 L177.000000,88.750000 L174.350006,90.099998 L156.500000,100.000000 L150.500000,104.500000 L144.100006,109.099998 L136.600006,114.750000 L120.599998,129.850006 L105.849998,147.850006 L93.849998,166.750000 L84.000000,188.000000 L81.750000,195.000000 L79.349998,202.500000 L76.849998,209.850006 L72.500000,232.600006 L71.099998,255.600006 L72.500000,278.750000 L76.849998,301.500000 L79.349998,308.600006 L81.750000,316.100006 Q99.750000,368.850006 144.100006,402.000000 L150.500000,406.600006 L156.750000,411.350006 L176.850006,422.350006 L198.750000,431.000000 L222.350006,436.850006 L244.250000,439.600006 L251.500000,439.600006 L259.500000,439.600006 L267.000000,439.600006 L290.250000,436.600006 L312.250000,431.000000 L334.100006,422.350006 L353.750000,411.500000 L360.350006,406.600006 L366.750000,402.000000 Q411.250000,368.850006 429.250000,316.100006 L431.600006,308.600006 L434.250000,300.500000 L438.350006,278.600006 L439.750000,253.750000 L438.250000,231.600006 L434.000000,209.500000 L431.600006,202.500000 L429.250000,195.000000 Q411.250000,142.100006 366.750000,109.099998 L360.350006,104.500000 L354.250000,99.750000 L334.250000,88.849998 L312.250000,80.099998 L288.600006,74.250000 L266.750000,71.500000 L259.500000,71.500000 L251.500000,71.500000 "
       id="path5" />
    <path
       sodipodi:type="spiral"
       style="fill:none;fill-opacity:1;fill-rule:evenodd;stroke:#ff5600;stroke-width:8;stroke-linecap:round;stroke-linejoin:miter;stroke-miterlimit:4;stroke-dasharray:none;stroke-opacity:1"
       id="path3341"
       sodipodi:cx="255.425"
       sodipodi:cy="255.55"
       sodipodi:expansion="1"
       sodipodi:revolution="10.183005"
       sodipodi:radius="188.12477"
       sodipodi:argument="-16.80323"
       sodipodi:t0="0"
       d="m 255.425,255.55 c -1.27217,2.47052 -3.95785,-0.49599 -4.10616,-2.11443 -0.40191,-4.38587 4.63221,-6.72345 8.33503,-6.0979 6.62348,1.11898 9.73237,8.53636 8.08963,14.55564 -2.41078,8.83354 -12.48525,12.80774 -20.77624,10.08136 -11.05058,-3.63384 -15.91006,-16.44896 -12.07309,-26.99684 4.82845,-13.27344 20.41946,-19.02606 33.21745,-14.06482 15.50007,6.00872 22.14991,24.39373 16.05654,39.43804 -7.18082,17.7292 -28.37035,25.27869 -45.65864,18.04828 -19.96002,-8.3478 -28.41076,-32.34854 -20.04001,-51.87925 9.51139,-22.19203 36.32783,-31.54513 58.09985,-22.03173 24.42491,10.67259 34.68118,40.30792 24.02347,64.32044 -11.83209,26.65846 -44.28863,37.81848 -70.54105,26.0152 -28.8925,-12.99028 -40.95675,-48.2698 -28.00693,-76.76165 14.14749,-31.12693 52.25134,-44.09576 82.98225,-29.99866 33.36169,15.30392 47.23539,56.23319 31.99039,89.20286 -16.45973,35.59669 -60.21528,50.3755 -95.42345,33.98211 -37.83192,-17.61503 -53.51603,-64.19756 -35.97385,-101.64405 18.76992,-40.0673 68.18002,-56.65688 107.86465,-37.96558 42.30284,19.92447 59.79802,72.16263 39.95731,114.08526 -21.07872,44.5385 -76.14535,62.93939 -120.30586,41.94904 -46.77427,-22.23273 -66.08098,-80.12818 -43.94077,-126.52646 23.38653,-49.01014 84.11109,-69.22274 132.74706,-45.9325 51.24608,24.54014 72.36466,88.09408 47.92423,138.96766 -25.6936,53.48208 -92.07715,75.50671 -145.18826,49.91596 -55.71815,-26.84692 -78.64888,-96.06028 -51.90769,-151.40886 28.00011,-57.95428 100.04346,-81.79116 157.62947,-53.89942 60.19045,29.1532 84.93353,104.02668 55.89115,163.85006 -30.3062,62.42667 -108.00996,88.07598 -170.07067,57.88288 -64.66292,-31.4591 -91.21851,-111.99327 -59.87461,-176.29127 32.61193,-66.8992 115.97661,-94.361102 182.51187,-61.86634 69.13552,33.7647 97.50376,119.95999 63.85807,188.73247 -34.9174,71.37187 -123.94339,100.64647 -194.95307,65.8498 C 114.15482,350.87726 83.973835,259.02048 119.92154,185.77363 157.14417,109.92899 251.83181,78.841594 327.31581,115.94037 405.39686,154.31555 437.3907,251.83413 399.1408,329.55524 359.61312,409.87274 259.26355,442.77302 179.30533,403.37197 96.751382,362.69182 62.944633,259.5112 103.49687,177.31589 145.32945,92.525476 251.34117,57.812244 335.77355,99.515709 422.80045,142.50068 458.42018,251.34355 415.56546,338.01299 371.42813,427.27639 259.75406,463.80263 170.84758,419.79663 105.60709,387.50457 64.748882,317.92578 67.580468,245.28548" />
  </g>
</svg>
